X:299
T:Muss i denn
T:Wooden Heart
Z:Jack Campin, http://www.campin.me.uk/
F:Jack Campin's Nine-Note Tunebook
% last edit 03-02-2013
M:4/4
L:1/8
Q:1/4=108
N:more or less the Elvis version
K:C
CD|E2EG F2FA|G2GF E4  |G2GF E2EG|F2FE D2G2|[1 E6:|\
                                           [2 C6||
CE|D3 E F2D2|E3 F G2GG|A2A2 c2BA|G6
CD|E2EG F2FA|G2GF E4  |G2GF E2EG|F2FE D2G2|   C6|]

